X:485
T:Reel 485
M:4/4
K:Ador
L:1/8
ED|CA,B,G, E,A,A,2|CA,CB, CDED||CB,CD EDED|CA,A,G, E,G,E,D,:||2CA,CB, CDED|CA,B,G, A,2|AB|cBAG EAAB|cABG EGAB|cBAB G2GE|EAAG A2cB|cdec B2dB|cBAG A2E^F|GDGD DCB,D|ECDB, CA,A,|
